assets/icons/regular/form-icon-regular.svg

<svg width="32" height="32" viewBox="0 0 32 32" fill="none" xmlns="http://www.w3.org/2000/svg">
<path fill-rule="evenodd" clip-rule="evenodd" d="M8 2.79365V29.2064C8 30.7492 9.23122 32 10.75 32H29.25C30.7688 32 32 30.7492 32 29.2064V7.35127C32 6.60502 31.7061 5.88979 31.1838 5.36503L26.6478 0.807413C26.133 0.29013 25.4381 0 24.714 0H10.75C9.23122 0 8 1.25076 8 2.79365ZM9.75 29.2064V2.79365C9.75 2.2326 10.1977 1.77778 10.75 1.77778H24.375V7.87302C24.375 8.92499 25.2145 9.77778 26.25 9.77778H30.25V29.2064C30.25 29.7674 29.8023 30.2222 29.25 30.2222H10.75C10.1977 30.2222 9.75 29.7674 9.75 29.2064ZM30.25 8V7.35127C30.25 7.07991 30.1431 6.81982 29.9532 6.629L26.125 2.78254V7.87302C26.125 7.94315 26.181 8 26.25 8H30.25Z" fill="#9D9C9B"/>
<path fill-rule="evenodd" clip-rule="evenodd" d="M25 14H20V12H25C26.6569 12 28 13.3431 28 15C28 16.6569 26.6569 18 25 18H20V16H25C25.5523 16 26 15.5523 26 15C26 14.4477 25.5523 14 25 14Z" fill="#4EA7AF"/>
<path fill-rule="evenodd" clip-rule="evenodd" d="M25 22H20V20H25C26.6569 20 28 21.3431 28 23C28 24.6569 26.6569 26 25 26H20V24H25C25.5523 24 26 23.5523 26 23C26 22.4477 25.5523 22 25 22Z" fill="#3D9298"/>
<path d="M0 9.25C0 8.42157 0.671573 7.75 1.5 7.75H16.5C17.3284 7.75 18 8.42157 18 9.25V24.25C18 25.0784 17.3284 25.75 16.5 25.75H1.5C0.671573 25.75 0 25.0784 0 24.25V9.25Z" fill="#3D9298"/>
<path d="M6.5 21.5215V11.5H12V13.5H8.5V15.5H12V17.5H8.5L8.52344 21.5215H6.5Z" fill="white"/>
</svg>

<svg xmlns="http://www.w3.org/2000/svg" width="32" height="32" fill="none" viewBox="0 0 32 32"><path fill="#9D9C9B" fill-rule="evenodd" d="M8 2.794v26.412C8 30.75 9.231 32 10.75 32h18.5c1.519 0 2.75-1.25 2.75-2.794V7.351c0-.746-.294-1.461-.816-1.986L26.648.807A2.73 2.73 0 0 0 24.714 0H10.75C9.231 0 8 1.25 8 2.794m1.75 26.412V2.794c0-.561.448-1.016 1-1.016h13.625v6.095c0 1.052.84 1.905 1.875 1.905h4v19.428c0 .561-.448 1.016-1 1.016h-18.5c-.552 0-1-.455-1-1.016M30.25 8v-.649c0-.271-.107-.531-.297-.722l-3.828-3.846v5.09c0 .07.056.127.125.127z" clip-rule="evenodd"/><path fill="#4EA7AF" fill-rule="evenodd" d="M25 14h-5v-2h5a3 3 0 1 1 0 6h-5v-2h5a1 1 0 1 0 0-2" clip-rule="evenodd"/><path fill="#3D9298" fill-rule="evenodd" d="M25 22h-5v-2h5a3 3 0 1 1 0 6h-5v-2h5a1 1 0 1 0 0-2" clip-rule="evenodd"/><path fill="#3D9298" d="M0 9.25a1.5 1.5 0 0 1 1.5-1.5h15a1.5 1.5 0 0 1 1.5 1.5v15a1.5 1.5 0 0 1-1.5 1.5h-15a1.5 1.5 0 0 1-1.5-1.5z"/><path fill="#fff" d="M6.5 21.522V11.5H12v2H8.5v2H12v2H8.5l.023 4.021z"/></svg>
